!!!COM: Saint-Saens, Camille
!!!CNT: Francais
!!!TXO: Francais
!!!OTL: Souvenances
!!!LYR: F. Lemaire
!!!ENC: Jacob Pegg
!!!YOR: Huit melodies : for high voice
!!!YOR: Huntsville, TX: Recital Publications, 1982 
!!!ODT: 1858/
!!NB: Vocal melody and text only encoded.
!!NB: First instance of melodic material only encoded.
**kern	**silbe
*clef G2	*
*k[b-e-a-d-g-]	*
*M4/4	*
!!created: 3/1/04 10:00 AM
!!proofed and posted: 3/1/04 12:53 PM
!!edit time: 39 min.
=1	=1
1r	.
=2	=2
2r	.
2r	.
=3	=3
{2.a-	{Quand
4a-	mon
=4	=4
2dd-	a^-
4a-	-me,
4a-	ber-
=5	=5
2ff	-ce/-
4dd-	-e
8a-	Par
8b-	un
=6	=6
(4cc-	doux
8dd-	|
8ee-)	|
4dd-	sou-
4a-	-ve-
=7	=7
2b-}	-nir,}
{4.b-	{Laisse
8b-	er-
=8	=8
2ee-	-rer
4dd-	ma
4cc	pen-
=9	=9
2dd-	-se/-
4a-	-e
8f	Loin
8gn	du
=10	=10
2a-	som-
4.gn	-bre a-
8c	-ve-
=11	=11
2.f}	-nir;}
4r	.
!!mm 12-16 melodic repeat of 1st phrase
=16	=16
2r	.
{4b-	{Sur
4b-	la
=17	=17
2ee-	plaine
4b-	ou
4b-	la
=18	=18
2ggn	gre\-
4ee-	-ve
8b-	Ou\
8cc	m'en-
=19	=19
(4dd-	-trai^-
8ee-	|
8ff)	|
4ee-	-ne
4b-	sa
=20	=20
[1cc	voix,
=21	=21
2cc_	|
8cc]}	|}
8r	.
4r	.
=22	=22
{4f	{Ou\
4f	m'en-
[2ff	-trai^-
=23	=23
2ff]	|
2ggn	|
=24	=24
8aa-	|
8een	|
8ff	|
8cc	|
8dd-	|
8a-	|
8b-	|
8f	|
=25	=25
4a-}	-ne,}
4r	.
{[2dd-	{ou\
=26	=26
(4dd-]	|
4cc)	|
(4b-	m'en-
4f)	|
=27	=27
[2b-	-trai^-
8b-;]	|;
8a-	|
8g-	-ne
8e-	sa
=28	=28
4d-}	voix.}
4r	.
2r	.
!!mm.29-41 repeat melody
=42	=42
2r	.
{4b-	{Les
4b-	doux
=43	=43
2ee-	traits
4b-	d'une
4b-	a-
=44	=44
2ggn	-mi-
4ee-	-e,
(8b-	Et
8cc)	|
=45	=45
4dd-	que
(8ee-	j'en-
8ff)	|
4ee-	-tends
4b-	sa
=46	=46
[1cc	voix,
=47	=47
2cc_	|
8cc]}	|}
8r	.
4r	.
!!mm. 48-58 like at 22
=59	=59
2r	.
4r	.
{8b-	{Dans
8b-	la
=60	=60
2dd-	vie
4b-	ou\
4b-	je
=61	=61
2ggn	plon-
4dd-}	-ge,}
8r	.
{8b-	{Ne
=62	=62
[2dd-	voir
8dd-]	|
8dd-	que
8cc	les
8b-	a-
=63	=63
2a-}	-mours!}
2r	.
=64	=64
{4a-	{Tris-
8b-	-te
8cc-	des-
4b-	-tin
4a-	des
=65	=65
2a-	cho-
4g}	-ses}
8r	.
8r	.
!!repeat of prior phrase
=66	=66
2r	.
8r	.
8r	.
8r	.
8r	.
=67	=67
2r	.
4r	.
{8cc	{Re-
8cc	-trou-
=68	=68
2ee-	-ver
4dd-	sur
4cc	les
=69	=69
2cc	ro-
4b-	-ses
(8b-	Les
8cc)	|
=70	=70
4dd-	lar-
(8ee-	-mes
8ff)	|
4ee-	du
4dd-	ma-
=71	=71
[1cc	-tin!
=72	=72
2cc_	|
8cc]}	|}
*-	*-
